img/closew.svg

<svg width="31" height="30" viewBox="0 0 31 30" fill="none" xmlns="http://www.w3.org/2000/svg">
<path d="M17.2126 14.8556L30.6453 2.12625C31.1182 1.67808 31.1182 0.951469 30.6453 0.503361C30.1724 0.0552522 29.4056 0.0551948 28.9327 0.503361L15.5 13.2327L2.06726 0.503361C1.59433 0.0551948 0.827567 0.0551948 0.354698 0.503361C-0.118172 0.951527 -0.118233 1.67814 0.354698 2.12625L13.7874 14.8556L0.354698 27.5849C-0.118233 28.0331 -0.118233 28.7597 0.354698 29.2078C0.591133 29.4319 0.901071 29.5439 1.21101 29.5439C1.52095 29.5439 1.83083 29.4319 2.06732 29.2078L15.5 16.4785L28.9327 29.2078C29.1691 29.4319 29.4791 29.5439 29.789 29.5439C30.0989 29.5439 30.4088 29.4319 30.6453 29.2078C31.1182 28.7597 31.1182 28.0331 30.6453 27.5849L17.2126 14.8556Z" fill="white"/>
</svg>

<svg width="31" height="30" fill="none" xmlns="http://www.w3.org/2000/svg"><path d="M17.213 14.856l13.432-12.73a1.106 1.106 0 000-1.623 1.259 1.259 0 00-1.712 0L15.5 13.233 2.067.503a1.259 1.259 0 00-1.712 0 1.106 1.106 0 000 1.623l13.432 12.73L.355 27.585a1.106 1.106 0 000 1.623c.236.224.546.336.856.336.31 0 .62-.112.856-.336L15.5 16.478l13.433 12.73c.236.224.546.336.856.336.31 0 .62-.112.856-.336a1.106 1.106 0 000-1.623l-13.432-12.73z" fill="#fff"/></svg>
